Increase/img/stats/02.svg

<svg width="75" height="66" viewBox="0 0 75 66" fill="none" xmlns="http://www.w3.org/2000/svg">
<path fill-rule="evenodd" clip-rule="evenodd" d="M28.6252 4C21.0771 4 14.9883 10.0607 14.9883 17.5C14.9883 24.9393 21.0771 31 28.6252 31C36.1733 31 42.2621 24.9393 42.2621 17.5C42.2621 10.0607 36.1733 4 28.6252 4ZM10.9883 17.5C10.9883 7.81847 18.9012 0 28.6252 0C38.3492 0 46.2621 7.81847 46.2621 17.5C46.2621 27.1815 38.3492 35 28.6252 35C18.9012 35 10.9883 27.1815 10.9883 17.5Z" fill="#5E80FF"/>
<path fill-rule="evenodd" clip-rule="evenodd" d="M28.625 40.0271C14.978 40.0271 4 50.8066 4 64.0001C4 65.1046 3.10457 66.0001 2 66.0001C0.89543 66.0001 0 65.1046 0 64.0001C0 48.5046 12.8629 36.0271 28.625 36.0271C44.3872 36.0271 57.2501 48.5046 57.2501 64.0001C57.2501 65.1046 56.3546 66.0001 55.2501 66.0001C54.1455 66.0001 53.2501 65.1046 53.2501 64.0001C53.2501 50.8066 42.2721 40.0271 28.625 40.0271Z" fill="#5E80FF"/>
<path fill-rule="evenodd" clip-rule="evenodd" d="M62.0117 15.2297C59.2847 15.2297 57.0583 17.4566 57.0583 20.223C57.0583 22.9894 59.2847 25.2162 62.0117 25.2162C64.7386 25.2162 66.965 22.9894 66.965 20.223C66.965 17.4566 64.7386 15.2297 62.0117 15.2297ZM54.0583 20.223C54.0583 15.8172 57.6105 12.2297 62.0117 12.2297C66.4129 12.2297 69.965 15.8172 69.965 20.223C69.965 24.6288 66.4129 28.2162 62.0117 28.2162C57.6105 28.2162 54.0583 24.6288 54.0583 20.223Z" fill="#5E80FF"/>
<path fill-rule="evenodd" clip-rule="evenodd" d="M62.0118 30.3223C56.7577 30.3223 52.5237 34.536 52.5237 39.7028C52.5237 40.5313 51.8521 41.2028 51.0237 41.2028C50.1953 41.2028 49.5237 40.5313 49.5237 39.7028C49.5237 32.8514 55.1287 27.3223 62.0118 27.3223C68.8948 27.3223 74.4999 32.8514 74.4999 39.7028C74.4999 40.5313 73.8283 41.2028 72.9999 41.2028C72.1715 41.2028 71.4999 40.5313 71.4999 39.7028C71.4999 34.536 67.2659 30.3223 62.0118 30.3223Z" fill="#5E80FF"/>
</svg>

<svg width="75" height="66" fill="none" xmlns="http://www.w3.org/2000/svg"><path fill-rule="evenodd" clip-rule="evenodd" d="M28.625 4c-7.548 0-13.637 6.06-13.637 13.5S21.078 31 28.625 31c7.548 0 13.637-6.06 13.637-13.5S36.173 4 28.625 4zM10.988 17.5c0-9.682 7.913-17.5 17.637-17.5s17.637 7.818 17.637 17.5c0 9.681-7.913 17.5-17.637 17.5s-17.637-7.819-17.637-17.5zm17.637 22.527C14.978 40.027 4 50.807 4 64a2 2 0 01-4 0c0-15.495 12.863-27.973 28.625-27.973S57.25 48.505 57.25 64a2 2 0 01-4 0c0-13.193-10.978-23.973-24.625-23.973zM62.012 15.23c-2.727 0-4.954 2.227-4.954 4.993 0 2.766 2.227 4.993 4.954 4.993s4.953-2.227 4.953-4.993c0-2.766-2.226-4.993-4.953-4.993zm-7.954 4.993c0-4.406 3.553-7.993 7.954-7.993 4.4 0 7.953 3.587 7.953 7.993 0 4.406-3.552 7.993-7.953 7.993s-7.954-3.587-7.954-7.993z" fill="#5E80FF"/><path fill-rule="evenodd" clip-rule="evenodd" d="M62.012 30.322c-5.254 0-9.488 4.214-9.488 9.38a1.5 1.5 0 11-3 0c0-6.85 5.605-12.38 12.488-12.38 6.883 0 12.488 5.53 12.488 12.38a1.5 1.5 0 11-3 0c0-5.166-4.234-9.38-9.488-9.38z" fill="#5E80FF"/></svg>
